X: 690
T: Gouqin shangshou
L: 1/8
M: 2/4
K: G
z d/ B/ [I:setbarnb 1]| 
A A/ G/A2 | 
A dd2 | 
B e/ e/ d B | 
A GF2 | 
d d e d | 
B A B d | 
F/ z/ E/ G/ A E | 
D2 |]

@@@ Tune index: 9564
